src/lib/packages/icons/src/assets/line/comment-code.svg

<svg width="24" height="24" viewBox="0 0 24 24" fill="none" xmlns="http://www.w3.org/2000/svg">
<path d="M3.85693 21.75C3.71193 21.75 3.57111 21.7479 3.43311 21.7429C2.93311 21.7309 2.49497 21.411 2.32397 20.928C2.15197 20.442 2.29408 19.9131 2.68408 19.5811C3.61608 18.8291 3.98892 17.997 4.13892 17.426C2.90192 15.947 2.24902 14.08 2.24902 12.001C2.24902 6.84798 6.25902 3.25 11.999 3.25C17.739 3.25 21.749 6.84898 21.749 12.001C21.749 17.153 17.739 20.752 11.999 20.752C10.812 20.752 9.67398 20.591 8.60498 20.2729C7.24198 21.4599 5.36393 21.75 3.85693 21.75ZM3.47803 20.2429C3.48003 20.2429 3.48189 20.2429 3.48389 20.2429C3.48089 20.2439 3.47903 20.2439 3.47803 20.2429ZM12 4.75C7.143 4.75 3.75 7.73198 3.75 12.001C3.75 13.837 4.35498 15.4629 5.50098 16.7029C5.65598 16.8709 5.72692 17.1009 5.69092 17.3279C5.52292 18.3989 4.99511 19.4119 4.18311 20.2429C5.34311 20.2009 6.90304 19.9339 7.86304 18.9099C8.06404 18.6939 8.37503 18.6171 8.65503 18.7141C9.69003 19.0721 10.815 19.2529 12 19.2529C16.857 19.2529 20.25 16.271 20.25 12.002C20.25 7.73295 16.857 4.75 12 4.75ZM11.03 14.53C11.323 14.237 11.323 13.762 11.03 13.469L9.56006 11.999L11.03 10.5291C11.323 10.2361 11.323 9.76102 11.03 9.46802C10.737 9.17502 10.262 9.17502 9.96899 9.46802L7.96899 11.468C7.67599 11.761 7.67599 12.2361 7.96899 12.5291L9.96899 14.5291C10.115 14.6751 10.307 14.749 10.499 14.749C10.691 14.749 10.884 14.677 11.03 14.53ZM14.03 14.53L16.03 12.53C16.323 12.237 16.323 11.762 16.03 11.469L14.03 9.46899C13.737 9.17599 13.262 9.17599 12.969 9.46899C12.676 9.76199 12.676 10.237 12.969 10.53L14.439 12L12.969 13.47C12.676 13.763 12.676 14.238 12.969 14.531C13.115 14.677 13.307 14.751 13.499 14.751C13.691 14.751 13.884 14.677 14.03 14.53Z" fill="currentColor"/>
</svg>

<svg xmlns="http://www.w3.org/2000/svg" width="24" height="24" fill="none"><path fill="currentColor" d="M3.857 21.75c-.145 0-.286-.002-.424-.007a1.207 1.207 0 0 1-1.109-.815 1.221 1.221 0 0 1 .36-1.347c.932-.752 1.305-1.584 1.455-2.155-1.237-1.479-1.89-3.346-1.89-5.425 0-5.153 4.01-8.751 9.75-8.751s9.75 3.599 9.75 8.751c0 5.152-4.01 8.751-9.75 8.751-1.187 0-2.325-.161-3.394-.48-1.363 1.188-3.241 1.478-4.748 1.478Zm-.379-1.507h.006-.006ZM12 4.75c-4.857 0-8.25 2.982-8.25 7.251 0 1.836.605 3.462 1.751 4.702a.749.749 0 0 1 .19.625c-.168 1.07-.696 2.084-1.508 2.915 1.16-.042 2.72-.31 3.68-1.333a.748.748 0 0 1 .792-.196c1.035.358 2.16.539 3.345.539 4.857 0 8.25-2.982 8.25-7.251 0-4.27-3.393-7.252-8.25-7.252Zm-.97 9.78a.75.75 0 0 0 0-1.061l-1.47-1.47 1.47-1.47a.75.75 0 0 0-1.061-1.061l-2 2a.75.75 0 0 0 0 1.061l2 2a.748.748 0 0 0 1.061.001Zm3 0 2-2a.75.75 0 0 0 0-1.061l-2-2a.75.75 0 1 0-1.061 1.061l1.47 1.47-1.47 1.47a.75.75 0 1 0 1.061 1.06Z"/></svg>
